X:16
M:C
L:1/8
Q:1/4=120
K:D
f>d (e/d/)c/d/ B2 (Bc/d/|D<B, B,>C D>EF>B|A<F F>E DE/F/ A,(F/E/)|
f/^a/|b>c' d'>c' b>=af>d|a<f f>e dAAf/^a/|b>c' d'>c' b>a f/^a/b/c'/|
d'f (e/d/)(c/e/) B/d/f/d/ B(d/e/)|f[fd'][fd']e/>d/ c[ca][ca]d/>c/|
[D3/2B3/2]c/ d/c/d/^e/ f[F^A][F^A] D/=E/|[DF][DF][DF] (C/D/) [CE][CE][CE
] (D/C/)|

